!!!COM: Palestrina, Giovanni Perluigi da
!!!OPR: Veni creator Spiritus
!!!OTL: Sanctus
**kern	**kern	**kern	**kern	**kern	**kern
*Ibass	*Itenor	*Itenor	*Icalto	*Icant	*Icant
!Bassus	!Tenor 2	!Tenor 1	!Altus	!Cantus 2	!Cantus 1
*clefF4	*clefGv2	*clefGv2	*clefG2	*clefG2	*clefG2
*k[]	*k[]	*k[]	*k[]	*k[]	*k[]
*G:mix	*G:mix	*G:mix	*G:mix	*G:mix	*G:mix
*M4/2	*M4/2	*M4/2	*M4/2	*M4/2	*M4/2
=1	=1	=1	=1	=1	=1
0r	1r	0r	1g	0r	0r
.	1d	.	1a	.	.
=2	=2	=2	=2	=2	=2
0r	1e	0r	1g	1r	0r
.	1d	.	1f	1dd	.
=3	=3	=3	=3	=3	=3
0r	1c	0r	2g	1ee	0r
.	.	.	2.a	.	.
.	2.d	.	.	1dd	.
.	.	.	4g	.	.
.	.	.	4f	.	.
.	4e	.	4g	.	.
=4	=4	=4	=4	=4	=4
0r	4f	0r	4a	1cc	0r
.	4g	.	4b	.	.
.	2a	.	1cc	.	.
.	2f	.	.	1dd	.
.	2g	.	2b	.	.
=5	=5	=5	=5	=5	=5
0r	1c	0r	4a	1ee	0r
.	.	.	4g	.	.
.	.	.	1cc	.	.
.	2.g	.	.	2dd	.
.	.	.	4b	[2gg	.
.	4f	.	4a	.	.
=6	=6	=6	=6	=6	=6
0r	4e	0r	2b	4gg]	0g
.	4d	.	.	4ff	.
.	2c	.	2cc	2.ee	.
.	1e	.	2b	.	.
.	.	.	.	4dd	.
.	.	.	[2g	4b	.
.	.	.	.	4cc	.
=7	=7	=7	=7	=7	=7
0D	1d	0r	2g]	0dd	0a
.	.	.	4f#	.	.
.	.	.	4e	.	.
.	2r	.	1f#	.	.
.	[2d	.	.	.	.
=8	=8	=8	=8	=8	=8
0E	2d]	0r	4g	1b	0g
.	.	.	4f	.	.
.	4c	.	4e	.	.
.	4B	.	4d	.	.
.	1c	.	1e	1g	.
=9	=9	=9	=9	=9	=9
0D	2.d	1r	1A	2r	0f#
.	.	.	.	2a	.
.	8c	.	.	.	.
.	8B	.	.	.	.
.	1A	1d	2r	4a	.
.	.	.	.	4g	.
.	.	.	2d	4a	.
.	.	.	.	4b	.
=10	=10	=10	=10	=10	=10
1C	2r	1e	2G	4cc	0g
.	.	.	.	4dd	.
.	1c	.	2.g	4ee	.
.	.	.	.	4cc	.
1G	.	1d	.	1dd	.
.	.	.	4f	.	.
.	2B	.	2d	.	.
=11	=11	=11	=11	=11	=11
1r	1.A	1c	1e	2r	0a
.	.	.	.	2ee	.
1D	.	[1d	2d	1ff#	.
.	[2d	.	2a	.	.
=12	=12	=12	=12	=12	=12
1G	4d]	1d]	1b	2.gg	0g
.	4G	.	.	.	.
.	2.g	.	.	.	.
.	.	.	.	4ff	.
2C	.	2.e	1cc	4ee	.
.	4f	.	.	4dd	.
[2c	4e	.	.	[2ee	.
.	4d	4f	.	.	.
=13	=13	=13	=13	=13	=13
4c]	4c	2g	2r	4ee]	0cc
4B	4d	.	.	4dd	.
4A	2e	1a	2.c	4cc	.
4G	.	.	.	4b	.
2F	2f	.	.	2a	.
.	.	.	4d	.	.
2c	2e	[2g	4e	[2cc	.
.	.	.	4c	.	.
=14	=14	=14	=14	=14	=14
0G	1d	2g]	0g	2cc]	0dd
.	.	4f	.	4b	.
.	.	4e	.	4a	.
.	[1G	1d	.	4b	.
.	.	.	.	4a	.
.	.	.	.	4g	.
.	.	.	.	4f	.
=15	=15	=15	=15	=15	=15
0C	1G]	2r	1g	1e	0cc
.	.	1g	.	.	.
.	1r	.	2r	2.ee	.
.	.	2e	2cc	.	.
.	.	.	.	8dd	.
.	.	.	.	8cc	.
=16	=16	=16	=16	=16	=16
0r	2r	2f	2a	1dd	0r
.	1g	2g	2b	.	.
.	.	2.c	[1cc	1ee	.
.	2e	.	.	.	.
.	.	4B	.	.	.
=17	=17	=17	=17	=17	=17
0r	2f	2A	2cc]	0r	0r
.	1g	2G	2b	.	.
.	.	1d	[1a	.	.
.	2f	.	.	.	.
=18	=18	=18	=18	=18	=18
0r	2.e	1c	2a]	2r	0r
.	.	.	4g	1cc	.
.	4d	.	4f	.	.
.	2c	2r	2e	.	.
.	2d	2f	2a	2a	.
=19	=19	=19	=19	=19	=19
0r	2G	2d	4g	2b	0r
.	.	.	4f	.	.
.	2c	2e	4e	1cc	.
.	.	.	4d	.	.
.	2A	2f	4c	.	.
.	.	.	4A	.	.
.	2B	2g	[2d	2b	.
=20	=20	=20	=20	=20	=20
0r	2c	2e	4d]	2a	0r
.	.	.	4c	.	.
.	2F	2f	1c	2a	.
.	2G	1d	.	2.g	.
.	2G	.	2B	.	.
.	.	.	.	4f	.
=21	=21	=21	=21	=21	=21
2r	4A	1c	4c	2e	0cc
.	4B	.	4d	.	.
1c	4c	.	4e	1ee	.
.	4d	.	4f	.	.
.	1e	2r	2g	.	.
2A	.	2e	2a	2cc	.
=22	=22	=22	=22	=22	=22
2B	2r	2d	0r	2dd	0g
1c	2e	4c	.	1ee	.
.	.	4d	.	.	.
.	2c	4e	.	.	.
.	.	4f	.	.	.
2B	2d	2g	.	2dd	.
=23	=23	=23	=23	=23	=23
2A	1e	1r	2r	2dd	0a
2A	.	.	1a	2cc#	.
1D	1d	2.f	.	1dd	.
.	.	.	2f	.	.
.	.	4d	.	.	.
=24	=24	=24	=24	=24	=24
0r	2c	2e	2g	1r	0cc
.	2F	1f	1a	.	.
.	1c	.	.	2r	.
.	.	2e	2g	2g	.
=25	=25	=25	=25	=25	=25
1r	2r	2.d	2g	2a	0dd
.	1d	.	2f#	2a	.
.	.	4c	.	.	.
1G	.	4B	2g	1b	.
.	.	4G	.	.	.
.	2B	[2g	2d	.	.
=26	=26	=26	=26	=26	=26
2E	2c	2g]	2e	2g	0cc
2F	2A	2f	2c	4a	.
.	.	.	.	4b	.
1A	2A	1e	1c	4cc	.
.	.	.	.	4dd	.
.	[2c	.	.	4ee	.
.	.	.	.	4ff	.
=27	=27	=27	=27	=27	=27
1G	4c]	2r	2r	2gg	0dd
.	4B	.	.	.	.
.	2B	1d	2g	2g	.
2D	2A	.	2f#	2a	.
2G	2G	2B	[2g	2b	.
=28	=28	=28	=28	=28	=28
0C	0r	0c	2g]	2g	0ee
.	.	.	2.a	1cc	.
.	.	.	4g	.	.
.	.	.	[2g	2b	.
=29	=29	=29	=29	=29	=29
1r	2r	1d	2g]	1a	0dd
.	1d	.	2f#	.	.
1G	.	2G	2g	1b	.
.	2B	[2g	2d	.	.
=30	=30	=30	=30	=30	=30
2E	2c	2g]	2e	2r	0r
2F	2d	4f	2a	1dd	.
.	.	4e	.	.	.
2G	2d	2d	2.g	.	.
2G	[2e	2g	.	2b	.
.	.	.	4f	.	.
=31	=31	=31	=31	=31	=31
2.A	4e]	0c	2e	0cc	0r
.	4c	.	.	.	.
.	2.f	.	2a	.	.
4B	.	.	.	.	.
2c	.	.	1g	.	.
.	8e	.	.	.	.
.	8d	.	.	.	.
2c	2e	.	.	.	.
=32	=32	=32	=32	=32	=32
0F	1f	2r	2r	1a	1cc
.	.	2f	2a	.	.
.	1r	2f	2a	2r	2cc
.	.	2f	2a	2a	2cc
=33	=33	=33	=33	=33	=33
0r	0r	0d	4f	2a	0dd
.	.	.	4e	.	.
.	.	.	4f	2a	.
.	.	.	4g	.	.
.	.	.	4a	4f	.
.	.	.	4g	4g	.
.	.	.	2f	4a	.
.	.	.	.	4b	.
=34	=34	=34	=34	=34	=34
2r	2r	1c	2g	4cc	0ee
.	.	.	.	4dd	.
2c	2e	.	2cc	4ee	.
.	.	.	.	4ff	.
2c	2e	1r	2cc	2gg	.
2c	2e	.	2g	[2cc	.
=35	=35	=35	=35	=35	=35
0A	2f	2r	1a	4cc]	0cc
.	.	.	.	4dd	.
.	4e	2c	.	2ee	.
.	4d	.	.	.	.
.	4c	2c	1e	1a	.
.	4d	.	.	.	.
.	4e	2c	.	.	.
.	4f	.	.	.	.
=36	=36	=36	=36	=36	=36
1G	1g	2d	2r	2r	0b
.	.	4G	2g	2dd	.
.	.	4A	.	.	.
1G	4G	4B	2g	2dd	.
.	4A	4c	.	.	.
.	4B	4d	[2d	2dd	.
.	4c	4e	.	.	.
=37	=37	=37	=37	=37	=37
2.D	2.d	1f	4d]	1dd	0a
.	.	.	4e	.	.
.	.	.	4f	.	.
4E	4c	.	4g	.	.
1F	2A	1f	2a	2cc	.
.	2c	.	2f	2a	.
=38	=38	=38	=38	=38	=38
0BB-	1B-	2.d	1f	1.b-	1.dd
.	.	4c	.	.	.
.	2F	1B-	1d	.	.
.	[2f	.	.	4f	2dd
.	.	.	.	4g	.
=39	=39	=39	=39	=39	=39
1F	2f]	2A	1f	4a	0cc
.	.	.	.	4b	.
.	2c	2A	.	4cc	.
.	.	.	.	4dd	.
2C	2c	2G	2g	2ee	.
2C	[2g	2c	2e	2ee	.
=40	=40	=40	=40	=40	=40
0G	2g]	1.d	1g	2dd	0b
.	4f	.	.	2dd	.
.	4e	.	.	.	.
.	4d	.	2g	1gg	.
.	4c	.	.	.	.
.	2d	2G	[2g	.	.
=41	=41	=41	=41	=41	=41
0C	1c	2r	2g]	2ee	0cc
.	.	1g	2e	2cc	.
.	1c	.	2e	2g	.
.	.	2e	[2cc	2g	.
=42	=42	=42	=42	=42	=42
0r	2G	2d	4cc]	0dd	0r
.	.	.	4b	.	.
.	2G	2.g	2b	.	.
.	1d	.	1a	.	.
.	.	8f#	.	.	.
.	.	8e	.	.	.
.	.	2f#	.	.	.
!! Hosanna
*Ibass	*Itenor	*Itenor	*Icalto	*Icant	*Icant
!Bassus	!Tenor 2	!Tenor 1	!Altus	!Cantus 2	!Cantus 1
*clefF4	*clefGv2	*clefGv2	*clefG2	*clefG2	*clefG2
*k[]	*k[]	*k[]	*k[]	*k[]	*k[]
*G:mix	*G:mix	*G:mix	*G:mix	*G:mix	*G:mix
*M3/2	*M3/2	*M3/2	*M3/2	*M3/2	*M3/2
=43	=43	=43	=43	=43	=43
2G	2G	1g	2g	1.dd	1.b
2G	2d	.	2g	.	.
2G	2d	2r	2g	.	.
=44	=44	=44	=44	=44	=44
2.F	2.f	1r	2.a	1r	1.cc
4G	4e	.	4g	.	.
2A	2c	2r	2e	2r	.
=45	=45	=45	=45	=45	=45
2D	2d	1r	2.f	2ff	1.a
1F	2c	.	.	2ff	.
.	.	.	4e	.	.
.	4A	2r	2c	2ff	.
.	4B	.	.	.	.
=46	=46	=46	=46	=46	=46
1C	4c	2c	1e	2.ee	1.g
.	4d	.	.	.	.
.	4e	2c	.	.	.
.	4f	.	.	4dd	.
2r	2g	2e	2e	4b	.
.	.	.	.	4cc	.
=47	=47	=47	=47	=47	=47
1r	1a	2.d	2r	2dd	1.f
.	.	.	2f	2a	.
.	.	4c	.	.	.
2r	2r	2B-	2d	2dd	.
=48	=48	=48	=48	=48	=48
1r	1r	2A	2e	2cc	1.a
.	.	1d	2f	1dd	.
2r	2r	.	2f	.	.
=49	=49	=49	=49	=49	=49
2C	2e	1.c	1g	1.ee	1.cc
2C	2e	.	.	.	.
2C	2e	.	2g	.	.
=50	=50	=50	=50	=50	=50
2.G	2.d	1r	2g	1r	1.b
.	.	.	2g	.	.
4A	4c	.	.	.	.
2B	2d	2r	2g	2r	.
=51	=51	=51	=51	=51	=51
2c	2e	1r	2e	2r	1.a
1d	1f#	.	2d	2dd	.
.	.	2r	2a	2dd	.
=52	=52	=52	=52	=52	=52
1G	2g	2d	1.b	1dd	[1.g
.	2G	2d	.	.	.
2r	2G	2d	.	2dd	.
=53	=53	=53	=53	=53	=53
2G	2B	2.G	2r	2.b	1.g_
2G	1d	.	2g	.	.
.	.	4A	.	4cc	.
2G	.	2B	2g	2dd	.
=54	=54	=54	=54	=54	=54
2.C	2.c	2c	2.e	2.ee	1.g_
.	.	2.e	.	.	.
4D	8B	.	4f	4dd	.
.	8A	.	.	.	.
2E	2G	.	2g	2b	.
.	.	4f	.	.	.
=55	=55	=55	=55	=55	=55
2C	1c	2.g	2e	2cc	1.g]
1G	.	.	1d	2dd	.
.	.	4f	.	.	.
.	2B	2d	.	[2gg	.
=56	=56	=56	=56	=56	=56
1.C	2c	2e	2c	4gg]	[1.g
.	.	.	.	4ff	.
.	2.G	1c	1cc	1ee	.
.	4A	.	.	.	.
=57	=57	=57	=57	=57	=57
1.G	1.B	1.d	1.b	1.dd	1.g]
==	==	==	==	==	==
*-	*-	*-	*-	*-	*-
!!!CDT: 1525/^1526/-1594/2/2
!!!OCY: Italia
!!!AGN: Mass (Tenor)
!!!AST: renaissance, vocal
!!!ASW: Hymn
!!!PWK: Masses, Book 9
!!!RNB: Cadence finals: C,D
!!!YOR: Le Opere Complete, v. 25, p. 246
!!!YOO: Rome, Italy: Fratelli Scalera
!!!END: 1992//
!!!EED: John Miller
!!!YEC: Copyright 2000, John Miller
!!!YEN: United States of America
!!!YEM: Rights to all derivative electronic formats reserved.
!!!YEM: Refer to licensing agreement for further details.
!!!YEM: This file must be accompanied by the licensing agreement.
!!!YEM: A copy of the licensing agreement may be found at http://www.music-cog.ohio-state.edu/HumdrumDatabases/Palestrina/license.txt
!!!EMD: converted to Humdrum by Bret Aarden
